findly-builder/apps/searchassist/src/assets/images/pricing-plan/new-plan-pricing-img/search-assist-logo-text.svg

<svg width="157" height="20" viewBox="0 0 157 20" fill="none" xmlns="http://www.w3.org/2000/svg">
<path d="M7.64426 19.2284C3.35545 19.2284 0.370257 16.9284 0 13.3021H3.47887C3.84141 15.1268 5.50757 16.2461 7.85253 16.2461C9.78866 16.2461 10.938 15.4794 10.938 14.1684C10.938 13.1258 10.1666 12.4588 8.6239 12.1904L5.71584 11.6154C2.32953 10.9484 0.748225 9.31545 0.748225 6.58611C0.748225 3.27411 3.42488 1.05078 7.41285 1.05078C8.95559 1.05078 14.0929 1.45711 14.6637 6.56311H11.1848C10.9611 5.31345 10.1512 3.90278 7.64426 3.90278C5.6387 3.90278 4.3968 4.79978 4.3968 6.24111C4.3968 7.68245 5.67727 8.16545 7.06573 8.44911L9.26413 8.89378C12.9821 9.66045 14.5711 11.1171 14.5711 13.7468C14.5711 17.0741 11.8559 19.2284 7.64426 19.2284Z" fill="#222222"/>
<path d="M22.9713 19.2519C22.1027 19.2878 21.2359 19.1461 20.4246 18.8354C19.6134 18.5248 18.875 18.0518 18.2552 17.4459C17.6354 16.8399 17.1475 16.1139 16.8216 15.3128C16.4957 14.5117 16.3388 13.6527 16.3607 12.7888C16.3191 11.9271 16.4588 11.0662 16.7709 10.2611C17.0831 9.45608 17.5607 8.72461 18.1735 8.11347C18.7862 7.50233 19.5204 7.02496 20.3293 6.71187C21.1382 6.39878 22.0039 6.25686 22.871 6.29518C26.4656 6.29518 28.9803 8.85585 28.9803 12.5282C28.9859 12.8689 28.9678 13.2096 28.9263 13.5478H19.5773V13.7242C19.6853 14.5274 20.099 15.2588 20.7333 15.768C21.3675 16.2771 22.174 16.5252 22.9867 16.4612C23.4046 16.5008 23.8257 16.4351 24.2112 16.2703C24.5968 16.1055 24.9344 15.8468 25.1929 15.5182H28.7026C27.9929 17.7645 25.6943 19.2519 22.9713 19.2519ZM22.8942 8.98618C22.1381 8.94313 21.3925 9.17793 20.7994 9.64588C20.2063 10.1138 19.807 10.7822 19.6776 11.5239L19.6313 11.7155H25.6943V11.5392C25.6826 11.1843 25.5992 10.8354 25.449 10.5132C25.2988 10.191 25.0849 9.90221 24.82 9.66397C24.5551 9.42573 24.2447 9.24293 23.9072 9.12649C23.5697 9.01004 23.2121 8.96232 22.8556 8.98618H22.8942Z" fill="#222222"/>
<path d="M36.4699 19.1229C34.8148 19.0867 33.2415 18.3998 32.0949 17.2128C30.9484 16.0258 30.322 14.4354 30.353 12.7902C30.322 11.9701 30.4569 11.1522 30.7497 10.3849C31.0426 9.61756 31.4873 8.91645 32.0577 8.32307C32.6281 7.7297 33.3126 7.25614 34.0704 6.93043C34.8283 6.60472 35.6443 6.43349 36.4699 6.42689C37.6972 6.40387 38.9043 6.73978 39.9411 7.39289L40.1802 7.54622V6.68756H43.5202V18.8622H40.1879V18.0036L39.9488 18.1569C38.9098 18.8114 37.6998 19.1474 36.4699 19.1229ZM37.0716 9.15622C36.6066 9.16699 36.1485 9.26991 35.7241 9.45894C35.2996 9.64797 34.9175 9.91931 34.5999 10.2571C34.2824 10.5948 34.0358 10.9922 33.8748 11.4258C33.7138 11.8595 33.6415 12.3208 33.6622 12.7826C33.6457 13.2403 33.7213 13.6968 33.8846 14.1252C34.0479 14.5535 34.2955 14.9452 34.6131 15.2772C34.9306 15.6092 35.3116 15.8749 35.7338 16.0587C36.1559 16.2425 36.6108 16.3407 37.0716 16.3476C37.6693 16.3657 38.2625 16.2391 38.8001 15.9787C39.3376 15.7182 39.8033 15.3318 40.1571 14.8526V14.8142V10.7279V10.6896C39.8095 10.2018 39.3459 9.80714 38.8075 9.54091C38.269 9.27468 37.6727 9.14515 37.0716 9.16389V9.15622Z" fill="#222222"/>
<path d="M46.2744 18.8632V6.68857H49.6144V8.30624L49.869 8.06857C50.9979 7.03448 52.4839 6.47172 54.019 6.4969V9.63257C53.2033 9.62615 52.395 9.78613 51.644 10.1026C50.8931 10.4191 50.2154 10.8854 49.653 11.4726V11.5186V18.8786L46.2744 18.8632Z" fill="#222222"/>
<path d="M61.4395 19.1524C60.5987 19.1524 59.7662 18.9879 58.9894 18.6681C58.2126 18.3483 57.5068 17.8796 56.9123 17.2887C56.3178 16.6978 55.8462 15.9963 55.5245 15.2243C55.2027 14.4522 55.0371 13.6248 55.0371 12.7891C55.0371 11.9535 55.2027 11.126 55.5245 10.354C55.8462 9.58194 56.3178 8.88045 56.9123 8.28956C57.5068 7.69867 58.2126 7.22995 58.9894 6.91016C59.7662 6.59037 60.5987 6.42578 61.4395 6.42578C64.6484 6.42578 67.1476 8.41911 67.6104 11.3018H64.2627C64.0933 10.7054 63.7243 10.1843 63.2166 9.82461C62.7088 9.46495 62.0928 9.28827 61.4703 9.32378C61.0194 9.31979 60.5726 9.40806 60.1575 9.58312C59.7424 9.75817 59.368 10.0162 59.0576 10.3413C58.7472 10.6663 58.5074 11.0514 58.3532 11.4725C58.199 11.8936 58.1336 12.3418 58.1612 12.7891C58.1298 13.2358 58.1928 13.6841 58.346 14.1052C58.4993 14.5263 58.7394 14.9109 59.051 15.2343C59.3626 15.5577 59.7388 15.8128 60.1554 15.9832C60.5721 16.1536 61.0199 16.2356 61.4703 16.2238C62.0914 16.2692 62.7092 16.0993 63.2184 15.7428C63.7275 15.3863 64.0966 14.8654 64.2627 14.2688H67.6104C67.1476 17.1514 64.6252 19.1524 61.4395 19.1524Z" fill="#222222"/>
<path d="M78.7184 18.8604V12.4741C78.7184 10.4347 77.677 9.26939 75.8643 9.26939C75.2953 9.31541 74.7433 9.48394 74.2464 9.76328C73.7496 10.0426 73.3199 10.4261 72.9871 10.8871L72.9485 10.9331V18.8604H69.6162V0.636719H72.9485V7.71305L73.2031 7.51372C74.1853 6.70531 75.4221 6.2657 76.6974 6.27172C79.9525 6.27172 82.0507 8.57172 82.0507 12.1367V18.8374L78.7184 18.8604Z" fill="#222222"/>
<path d="M98.3109 18.8621L96.9224 15.4504H88.6379L87.2417 18.8621H83.5469L91.0986 1.34375H94.454L101.983 18.8621H98.3109ZM89.903 12.3377H95.6574L92.7493 5.29208L89.903 12.3377Z" fill="#222222"/>
<path d="M108.146 19.2541C106.148 19.2541 102.746 18.6791 102.384 14.8458H105.423C105.67 16.0725 106.595 16.7011 108.169 16.7011C109.558 16.7011 110.483 16.2181 110.483 15.4745C110.483 14.8765 109.974 14.4395 109.118 14.3091L106.418 13.8415C105.084 13.6038 102.847 12.8295 102.847 10.3148C102.847 7.80012 104.868 6.32812 108.123 6.32812C109.666 6.32812 113.222 6.71146 113.592 10.2688H110.568C110.421 9.28746 109.527 8.73546 108.123 8.73546C106.719 8.73546 106.109 9.39479 106.109 9.95446C106.109 10.3455 106.318 11.0278 107.729 11.2808L110.043 11.6488C112.512 12.0858 113.715 13.2435 113.715 15.1678C113.653 17.6978 111.548 19.2541 108.146 19.2541Z" fill="#222222"/>
<path d="M120.711 19.2541C118.706 19.2541 115.312 18.6791 114.949 14.8458H117.981C118.228 16.0725 119.153 16.7011 120.734 16.7011C122.115 16.7011 123.01 16.2181 123.01 15.4745C123.01 14.8765 122.501 14.4395 121.652 14.3091L118.953 13.8415C117.618 13.6038 115.381 12.8295 115.381 10.3148C115.381 7.80012 117.402 6.32812 120.657 6.32812C122.2 6.32812 125.756 6.71146 126.126 10.2688H123.103C122.956 9.28746 122.054 8.73546 120.657 8.73546C119.261 8.73546 118.636 9.39479 118.636 9.95446C118.636 10.3455 118.852 11.0278 120.264 11.2808L122.578 11.6488C125.046 12.0858 126.25 13.2435 126.25 15.1678C126.219 17.6978 124.105 19.2541 120.711 19.2541Z" fill="#222222"/>
<path d="M128.494 18.8619V6.68723H131.835V18.8619H128.494ZM130.191 4.05756C129.928 4.07106 129.664 4.03113 129.416 3.9402C129.168 3.84927 128.941 3.70922 128.749 3.52856C128.557 3.34791 128.404 3.13039 128.299 2.88922C128.195 2.64805 128.14 2.38825 128.14 2.12556C128.14 1.58876 128.354 1.07395 128.736 0.694378C129.118 0.314805 129.636 0.101563 130.176 0.101562C130.716 0.101563 131.234 0.314805 131.616 0.694378C131.998 1.07395 132.212 1.58876 132.212 2.12556C132.213 2.38586 132.16 2.64351 132.058 2.88305C131.955 3.1226 131.805 3.33909 131.616 3.51953C131.427 3.69997 131.204 3.84064 130.959 3.9331C130.714 4.02556 130.453 4.06789 130.191 4.05756Z" fill="#222222"/>
<path d="M139.564 19.2541C137.566 19.2541 134.164 18.6791 133.81 14.8458H136.841C137.088 16.0725 138.014 16.7011 139.587 16.7011C140.976 16.7011 141.901 16.2181 141.901 15.4745C141.901 14.8765 141.392 14.4395 140.536 14.3091L137.836 13.8415C136.509 13.6038 134.272 12.8295 134.272 10.3148C134.272 7.80012 136.293 6.32812 139.541 6.32812C141.084 6.32812 144.64 6.71146 145.01 10.2688H141.986C141.847 9.28746 140.945 8.73546 139.541 8.73546C138.137 8.73546 137.528 9.39479 137.528 9.95446C137.528 10.3455 137.736 11.0278 139.147 11.2808L141.462 11.6488C143.938 12.0858 145.133 13.2435 145.133 15.1678C145.072 17.6978 142.966 19.2541 139.564 19.2541Z" fill="#222222"/>
<path d="M153.332 19.2542C150.362 19.2542 148.449 17.2072 148.449 14.0409V9.4409H145.804V6.68856H148.449V2.22656H151.759V6.68856H156.294V9.42556H151.759V14.0256C151.759 15.4362 152.615 16.2412 154.119 16.2412C154.795 16.2203 155.465 16.1199 156.117 15.9422L156.541 18.7406C155.51 19.0986 154.424 19.2725 153.332 19.2542Z" fill="#222222"/>
</svg>

<svg width="157" height="20" fill="none" xmlns="http://www.w3.org/2000/svg"><path d="M7.644 19.228c-4.289 0-7.274-2.3-7.644-5.926h3.479c.362 1.825 2.029 2.944 4.374 2.944 1.936 0 3.085-.767 3.085-2.078 0-1.042-.771-1.71-2.314-1.978l-2.908-.575C2.33 10.948.748 9.315.748 6.586c0-3.312 2.677-5.535 6.665-5.535 1.543 0 6.68.406 7.25 5.512h-3.478c-.224-1.25-1.034-2.66-3.54-2.66-2.006 0-3.248.897-3.248 2.338s1.28 1.924 2.669 2.208l2.198.445c3.718.766 5.307 2.223 5.307 4.853 0 3.327-2.715 5.481-6.927 5.481Zm15.327.024a6.384 6.384 0 0 1-4.716-1.806 6.308 6.308 0 0 1-1.433-2.133 6.275 6.275 0 0 1-.461-2.524 6.17 6.17 0 0 1 1.813-4.676 6.275 6.275 0 0 1 4.697-1.818c3.595 0 6.11 2.56 6.11 6.233.005.34-.013.682-.055 1.02h-9.349v.176a3.162 3.162 0 0 0 1.156 2.044 3.2 3.2 0 0 0 2.254.693 2.513 2.513 0 0 0 2.206-.943h3.51c-.71 2.247-3.009 3.734-5.732 3.734Zm-.077-10.266a3.098 3.098 0 0 0-2.095.66 3.063 3.063 0 0 0-1.121 1.878l-.047.192h6.063v-.177a2.633 2.633 0 0 0-.874-1.875 2.664 2.664 0 0 0-1.964-.678h.038ZM36.47 19.123a6.274 6.274 0 0 1-4.375-1.91 6.198 6.198 0 0 1-1.742-4.423 6.1 6.1 0 0 1 1.705-4.467 6.204 6.204 0 0 1 4.412-1.896 6.292 6.292 0 0 1 3.471.966l.24.153v-.858h3.34v12.174h-3.333v-.858l-.24.153a6.293 6.293 0 0 1-3.478.966Zm.602-9.967a3.512 3.512 0 0 0-2.472 1.101 3.47 3.47 0 0 0-.938 2.526 3.423 3.423 0 0 0 .951 2.494 3.463 3.463 0 0 0 2.459 1.07 3.708 3.708 0 0 0 1.728-.368 3.683 3.683 0 0 0 1.357-1.126V10.69a3.635 3.635 0 0 0-1.35-1.15 3.66 3.66 0 0 0-1.735-.376v-.008Zm9.202 9.707V6.69h3.34v1.617l.255-.237a5.999 5.999 0 0 1 4.15-1.572v3.136a5.995 5.995 0 0 0-4.366 1.84v7.405l-3.379-.016Zm15.166.289a6.436 6.436 0 0 1-4.528-1.863 6.33 6.33 0 0 1 0-9 6.437 6.437 0 0 1 4.527-1.864c3.21 0 5.709 1.994 6.171 4.877h-3.347a2.723 2.723 0 0 0-1.046-1.477 2.75 2.75 0 0 0-1.747-.501 3.303 3.303 0 0 0-2.412 1.017 3.262 3.262 0 0 0-.897 2.448 3.194 3.194 0 0 0 .89 2.445 3.233 3.233 0 0 0 2.42.99 2.705 2.705 0 0 0 1.747-.481c.51-.357.879-.878 1.045-1.474h3.347c-.462 2.882-2.985 4.883-6.17 4.883Zm17.278-.292v-6.386c0-2.04-1.041-3.205-2.854-3.205a3.952 3.952 0 0 0-2.877 1.618l-.038.046v7.927h-3.333V.637h3.332v7.076l.255-.2a5.459 5.459 0 0 1 3.494-1.241c3.255 0 5.354 2.3 5.354 5.865v6.7l-3.333.023Zm19.592.002-1.388-3.412h-8.284l-1.396 3.412h-3.695l7.552-17.518h3.355l7.529 17.518h-3.672Zm-8.407-6.524h5.754L92.75 5.292l-2.846 7.046Zm18.243 6.916c-1.998 0-5.4-.575-5.762-4.408h3.039c.247 1.227 1.172 1.855 2.746 1.855 1.389 0 2.314-.483 2.314-1.226 0-.598-.509-1.035-1.365-1.166l-2.7-.467c-1.334-.238-3.571-1.013-3.571-3.527 0-2.515 2.021-3.987 5.276-3.987 1.543 0 5.099.383 5.469 3.94h-3.024c-.147-.98-1.041-1.533-2.445-1.533s-2.014.66-2.014 1.22c0 .39.209 1.073 1.62 1.326l2.314.368c2.469.437 3.672 1.595 3.672 3.519-.062 2.53-2.167 4.086-5.569 4.086Zm12.565 0c-2.005 0-5.399-.575-5.762-4.408h3.032c.247 1.227 1.172 1.855 2.753 1.855 1.381 0 2.276-.483 2.276-1.226 0-.598-.509-1.035-1.358-1.166l-2.699-.467c-1.335-.238-3.572-1.013-3.572-3.527 0-2.515 2.021-3.987 5.276-3.987 1.543 0 5.099.383 5.469 3.94h-3.023c-.147-.98-1.049-1.533-2.446-1.533-1.396 0-2.021.66-2.021 1.22 0 .39.216 1.073 1.628 1.326l2.314.368c2.468.437 3.672 1.595 3.672 3.519-.031 2.53-2.145 4.086-5.539 4.086Zm7.783-.392V6.687h3.341v12.175h-3.341Zm1.697-14.804a1.961 1.961 0 0 1-1.892-1.169 1.93 1.93 0 0 1-.159-.763c0-.537.214-1.052.596-1.432a2.043 2.043 0 0 1 2.88 0c.382.38.596.895.596 1.432a1.915 1.915 0 0 1-.596 1.394 1.946 1.946 0 0 1-1.425.538Zm9.373 15.196c-1.998 0-5.4-.575-5.754-4.408h3.031c.247 1.227 1.173 1.855 2.746 1.855 1.389 0 2.314-.483 2.314-1.226 0-.598-.509-1.035-1.365-1.166l-2.7-.467c-1.327-.238-3.564-1.013-3.564-3.527 0-2.515 2.021-3.987 5.269-3.987 1.543 0 5.099.383 5.469 3.94h-3.024c-.139-.98-1.041-1.533-2.445-1.533s-2.013.66-2.013 1.22c0 .39.208 1.073 1.619 1.326l2.315.368c2.476.437 3.671 1.595 3.671 3.519-.061 2.53-2.167 4.086-5.569 4.086Zm13.768 0c-2.97 0-4.883-2.047-4.883-5.213v-4.6h-2.645V6.689h2.645V2.227h3.31v4.462h4.535v2.737h-4.535v4.6c0 1.41.856 2.215 2.36 2.215a8.606 8.606 0 0 0 1.998-.299l.424 2.799a9.306 9.306 0 0 1-3.209.513Z" fill="#222"/></svg>
